src/media/icons/methodology/pixelperfect.svg

<?xml version="1.0" encoding="UTF-8"?>
<svg width="80px" height="80px" viewBox="0 0 80 80" version="1.1" xmlns="http://www.w3.org/2000/svg" xmlns:xlink="http://www.w3.org/1999/xlink">
    <title>01 Base / Ic / pixelperfect</title>
    <g id="01-Base-/-Ic-/-pixelperfect" stroke="none" stroke-width="1" fill="none" fill-rule="evenodd">
        <path d="M58.3272636,19.5 L15.5,19.5 C12.4624339,19.5 10,21.9624339 10,25 L10,67.8272636 C10,70.8648298 12.4624339,73.3272636 15.5,73.3272636 L58.3272636,73.3272636 C61.3648298,73.3272636 63.8272636,70.8648298 63.8272636,67.8272636 L63.8272636,25 C63.8272636,21.9624339 61.3648298,19.5 58.3272636,19.5 Z M15.5,22.5 L58.3272636,22.5 C59.7079755,22.5 60.8272636,23.6192881 60.8272636,25 L60.8272636,67.8272636 C60.8272636,69.2079755 59.7079755,70.3272636 58.3272636,70.3272636 L15.5,70.3272636 C14.1192881,70.3272636 13,69.2079755 13,67.8272636 L13,25 C13,23.6192881 14.1192881,22.5 15.5,22.5 Z" id="Rectangle" fill="#222222" fill-rule="nonzero"></path>
        <polygon id="Path-3" fill="#F8F8F8" points="62.1389414 6.92224871 57.952452 14.3500518 48.5303653 20.0582515 56.358793 24.0812513 62.1727364 33.1183121 68.1469305 23.7440611 78.1737238 20.0202804 67.2536495 15.524368"></polygon>
        <path d="M61.2983556,-3.31757311 C64.0367951,-3.31757311 66.2813423,-1.07302591 66.2813423,1.66541366 C66.2813423,7.67708577 68.2281919,11.5156305 72.0097575,13.7358337 C73.312774,14.5008505 74.8045293,15.048759 76.4291236,15.3725133 C77.196601,15.5254586 77.9371633,15.6182218 78.5401435,15.649399 L78.7898176,15.6589859 L78.9921174,15.6616329 L79.4845399,15.6616329 L79.9622599,15.7810629 C81.3016831,16.1159187 82.3619264,16.7655192 83.1278181,17.9308216 L83.1694142,17.9987951 L83.2274999,18.0837701 C83.9507596,19.2082393 84.1724029,20.5568927 83.8660083,21.8769863 L83.797681,22.1405493 L83.7152257,22.4029014 L83.6432715,22.592513 L83.5913164,22.7166611 L83.4771986,22.9627747 L83.3158977,23.2853765 L83.0994898,23.5739203 C82.153862,24.8347573 80.8109698,25.617702 79.2536286,25.6966246 L78.9921174,25.7032208 C78.3463685,25.7032208 77.4170858,25.8041274 76.4577463,25.9995867 C74.842694,26.3286435 73.3579991,26.8812057 72.060894,27.649515 C68.2960195,29.8795486 66.3569567,33.7143574 66.3569567,39.6994401 C66.3569567,42.4378797 64.1124095,44.6824269 61.3739699,44.6824269 C58.6355304,44.6824269 56.3909832,42.4378797 56.3909832,39.6994401 C56.3909832,33.6836096 54.4530769,29.8428543 50.6931652,27.6247769 C49.3990543,26.8613445 47.9175227,26.314678 46.3037544,25.991692 C45.5409933,25.8390299 44.8052127,25.7465085 44.2097995,25.7154661 L43.9635469,25.7059301 L43.6802081,25.7032208 C41.8048054,25.7032208 40.0326749,24.6378706 39.195127,22.9627747 C38.5727189,21.7179585 38.4911999,20.2606576 38.980963,18.904729 L39.0794957,18.651757 L39.195127,18.4020791 L39.4808906,17.8305518 L39.822824,17.4789672 C39.9385399,17.3401081 40.0588429,17.209803 40.1988791,17.077007 L40.3460539,16.9429716 L40.50975,16.804821 L40.7958978,16.5897382 C41.3042325,16.2181083 41.8789004,15.9544872 42.5175522,15.8017413 L42.7951706,15.7430753 L43.0805828,15.6980361 L43.2808192,15.678103 L43.4130572,15.6693516 L43.6802081,15.6616329 C44.329078,15.6616329 45.2418538,15.5645896 46.1946068,15.3734891 C47.8096673,15.0495448 49.2946007,14.501965 50.5928057,13.7379497 C54.3698676,11.5150855 56.3153688,7.6749459 56.3153688,1.66541366 C56.3153688,-1.07302591 58.559916,-3.31757311 61.2983556,-3.31757311 Z M61.3890741,9.33358112 L61.3024142,9.05479507 L61.2751796,9.14723496 C59.9135325,13.5443073 57.2660541,16.7725757 53.6360076,18.9089188 C52.4284023,19.6196147 51.1589794,20.1794703 49.8546201,20.6065922 L49.6704142,20.6637951 L49.71455,20.6775631 C55.1573867,22.3675605 59.4017346,26.0162218 61.3173479,32.1192027 L61.3734142,32.3057951 L61.3929062,32.2419492 C62.7114115,27.9779766 65.2406534,24.8097128 68.7039617,22.6682073 L69.0030977,22.4871626 C70.2086777,21.7730661 71.4768096,21.2092591 72.7804753,20.7779968 L73.0374142,20.6957951 L72.7923335,20.6201831 C67.4925574,18.9261215 63.3192713,15.3370469 61.3890741,9.33358112 Z" id="Shape" fill="#FFFFFF" fill-rule="nonzero"></path>
        <path d="M79.8238754,20.1909335 C79.6726467,19.888476 79.2945749,19.7372473 78.9921174,19.6616329 C77.252987,19.6616329 62.2813423,19.056718 62.2813423,1.66541366 C62.2813423,1.13611309 61.8276561,0.68242689 61.2983556,0.68242689 C60.769055,0.68242689 60.3153688,1.13611309 60.3153688,1.66541366 C60.3153688,19.056718 45.3437242,19.6616329 43.6802081,19.6616329 C43.453365,19.6616329 43.2265219,19.7372473 43.0752932,19.888476 C42.9240645,19.9640904 42.8484501,20.1153191 42.7728357,20.1909335 C42.621607,20.493391 42.621607,20.8714628 42.7728357,21.1739203 C42.9240645,21.4763777 43.3021363,21.7032208 43.6802081,21.7032208 C43.6802081,21.7032208 43.6802081,21.7032208 43.7558225,21.7032208 C45.4949529,21.7032208 60.3909832,22.3081358 60.3909832,39.6994401 C60.3909832,40.2287407 60.8446694,40.6824269 61.3739699,40.6824269 C61.9032705,40.6824269 62.3569567,40.2287407 62.3569567,39.6994401 C62.3569567,22.3837501 77.252987,21.7032208 78.9921174,21.7032208 C79.3701892,21.7032208 79.6726467,21.4763777 79.8994898,21.1739203 C80.0507185,20.8714628 80.0507185,20.493391 79.8238754,20.1909335 Z M61.2983556,32.2892322 C59.1055389,25.1058673 53.7369189,22.0056783 49.5025144,20.6446197 C53.7369189,19.2835611 59.1055389,16.1833721 61.2983556,9.00000723 C63.4911722,16.1833721 68.8597923,19.2835611 73.0941968,20.6446197 C68.8597923,22.0056783 63.4911722,25.1058673 61.2983556,32.2892322 Z" id="Shape" fill="#222222"></path>
    </g>
</svg>

<?xml version="1.0" encoding="utf-8"?>
<!-- Generator: Adobe Illustrator 23.0.6, SVG Export Plug-In . SVG Version: 6.00 Build 0)  -->
<svg version="1.1" id="Calque_1" xmlns="http://www.w3.org/2000/svg" xmlns:xlink="http://www.w3.org/1999/xlink" x="0px" y="0px"
	 viewBox="0 0 80 80" style="enable-background:new 0 0 80 80;" xml:space="preserve">
<style type="text/css">
	.st0{fill-rule:evenodd;clip-rule:evenodd;fill:#F8F8F8;}
	.st1{fill:#7D650E;}
	.st2{fill-rule:evenodd;clip-rule:evenodd;fill:#F9CA1C;}
	.st3{fill:#3E3207;}
	.st4{fill:#BB9815;}
	.st5{fill:#F9CA1C;}
	.st6{fill:#FAD549;}
	.st7{fill:#FBDF77;}
	.st8{fill:#FDEAA4;}
	.st9{fill:#FEF4D2;}
</style>
<title>01 Base / Ic / pixelperfect</title>
<g>
	<polygon id="Path-3" class="st0" points="62.1,6.9 58,14.4 48.5,20.1 56.4,24.1 62.2,33.1 68.1,23.7 78.2,20 67.3,15.5 	"/>
	<g>
		<path class="st1" d="M61.4,44.6c-0.2,0-0.4,0-0.6-0.1v23.3c0,1.4-1.1,2.5-2.5,2.5H15.5c-1.4,0-2.5-1.1-2.5-2.5V25
			c0-1.4,1.1-2.5,2.5-2.5h23.6c-0.4-0.9-0.4-2-0.2-3H15.5c-3,0-5.5,2.5-5.5,5.5v42.8c0,3,2.5,5.5,5.5,5.5h42.8c3,0,5.5-2.5,5.5-5.5
			V44C63.1,44.4,62.3,44.6,61.4,44.6z"/>
	</g>
	<path class="st2" d="M79.8,20.2c-0.2-0.3-0.5-0.5-0.8-0.5c-1.7,0-16.7-0.6-16.7-18c0-0.5-0.5-1-1-1s-1,0.5-1,1
		c0,17.4-15,18-16.6,18c-0.2,0-0.5,0.1-0.6,0.2c-0.2,0.1-0.2,0.2-0.3,0.3c-0.2,0.3-0.2,0.7,0,1s0.5,0.5,0.9,0.5c0,0,0,0,0.1,0
		c1.7,0,16.6,0.6,16.6,18c0,0.5,0.5,1,1,1s1-0.5,1-1c0-17.3,14.9-18,16.6-18c0.4,0,0.7-0.2,0.9-0.5C80.1,20.9,80.1,20.5,79.8,20.2z
		 M61.3,32.3c-2.2-7.2-7.6-10.3-11.8-11.6c4.2-1.4,9.6-4.5,11.8-11.6c2.2,7.2,7.6,10.3,11.8,11.6C68.9,22,63.5,25.1,61.3,32.3z"/>
</g>
<rect x="-113.6" y="123" class="st3" width="25.7" height="25.7"/>
<rect x="-73.4" y="123" class="st1" width="25.7" height="25.7"/>
<rect x="-33.2" y="123" class="st4" width="25.7" height="25.7"/>
<rect x="7" y="123" class="st5" width="25.7" height="25.7"/>
<rect x="47.3" y="123" class="st6" width="25.7" height="25.7"/>
<rect x="87.5" y="123" class="st7" width="25.7" height="25.7"/>
<rect x="127.7" y="123" class="st8" width="25.7" height="25.7"/>
<rect x="167.9" y="123" class="st9" width="25.7" height="25.7"/>
</svg>
